X:1
T:Rosy Finn's Favorite
R:slide
S:Bothy Band
D:on Hag you have Killed Me, Kid on Mt set
Z:John Walsh <walsh:math.ubc.ca>
M:12/8
K:G
B \
|: G2B d2g b2g d2B | cBc agf gfe dBA | G2B d2g b2g d2B | cBc agf g6 :|
|: g2b c'2b a2e e2g | f2a abg f2d d3 | g2b c'2b a2e e2g | faf def g6 :|
